src/assets/imgs/ico_quanjing.svg

<?xml version="1.0" encoding="UTF-8"?>
<svg width="60px" height="60px" viewBox="0 0 60 60" version="1.1" xmlns="http://www.w3.org/2000/svg" xmlns:xlink="http://www.w3.org/1999/xlink">
    <title>ico_quanjing</title>
    <g id="页面-1" stroke="none" stroke-width="1" fill="none" fill-rule="evenodd">
        <g id="1-分享主页" transform="translate(-158.000000, -834.000000)">
            <g id="编组-6" transform="translate(10.000000, 714.000000)">
                <g id="编组" transform="translate(148.000000, 120.000000)">
                    <circle id="椭圆形" stroke="#FFFFFF" fill="#000000" opacity="0.600000024" cx="30" cy="30" r="29.5"></circle>
                    <path d="M30.0235145,16.4 C29.5767388,16.4 29.1299631,16.4705659 28.7302164,16.6116976 C29.2475357,17.3173564 29.1299631,18.3288006 28.4245278,18.8933276 C27.9542376,19.5284205 27.1077152,19.6930742 26.4022799,19.3637668 L26.4022799,19.8812499 C26.3317364,21.8570944 27.9072086,23.5271535 29.8824274,23.5977194 C31.8576463,23.6682853 33.5271766,22.092314 33.5977201,20.1164695 C33.6682636,18.140625 32.0927914,16.4705659 30.1175726,16.4 L30.0235145,16.4 Z" id="路径" fill="#FFFFFF" fill-rule="nonzero"></path>
                    <path d="M35.0853177,28.8409907 C39.8328268,26.0011691 41.3997387,19.7772267 38.6401028,14.9731951 C35.8570802,10.1691635 29.6829797,8.58359644 24.9354705,11.3760877 C20.1879614,14.168579 18.574276,20.4398517 21.3806854,25.2438833 C22.2693817,26.7347897 23.4621056,27.9417139 24.9354705,28.8409907 L22.8072768,32.5800892 C22.5500226,33.0297276 22.7371166,33.6213571 23.1814647,33.8816741 C23.3217852,33.9526696 23.4854924,34 23.6258128,34 L36.4183621,34 C36.9328705,34 37.3772186,33.5503616 37.3304451,33.0297276 C37.3304451,32.8877365 37.2836716,32.7220803 37.2135114,32.5800892 L35.0853177,28.8409907 L35.0853177,28.8409907 Z M30.0103941,25.9538387 C26.8297968,25.9538387 24.2806417,23.3270037 24.3040284,20.1085392 C24.3040284,16.8900747 26.8999571,14.3105701 30.0805543,14.3342352 C33.2143781,14.3342352 35.78692,16.9610702 35.78692,20.1322044 C35.7401465,23.3270037 33.1909914,25.9538387 30.0103941,25.9538387 Z" id="形状" fill="#FFFFFF" fill-rule="nonzero"></path>
                    <text x="16" y="50" fill="white" font-size="14">全景</text>
                </g>
            </g>
        </g>
    </g>
</svg>

<svg width="60" height="60" xmlns="http://www.w3.org/2000/svg"><g fill="none" fill-rule="evenodd"><circle stroke="#FFF" fill="#000" opacity=".6" cx="30" cy="30" r="29.5"/><path d="M30.024 16.4c-.447 0-.894.07-1.294.212.518.705.4 1.717-.305 2.281-.47.635-1.317.8-2.023.47v.518c-.07 1.976 1.505 3.646 3.48 3.717 1.976.07 3.645-1.506 3.716-3.482.07-1.975-1.505-3.645-3.48-3.716h-.094z" fill="#FFF" fill-rule="nonzero"/><path d="M35.085 28.841c4.748-2.84 6.315-9.064 3.555-13.868-2.783-4.804-8.957-6.39-13.705-3.597-4.747 2.793-6.36 9.064-3.554 13.868a10.406 10.406 0 003.554 3.597l-2.128 3.74c-.257.449-.07 1.04.374 1.3.14.072.304.119.445.119h12.792c.515 0 .96-.45.912-.97 0-.142-.046-.308-.116-.45l-2.129-3.739zm-5.075-2.887c-3.18 0-5.73-2.627-5.706-5.845 0-3.219 2.596-5.798 5.777-5.775 3.133 0 5.706 2.627 5.706 5.798-.047 3.195-2.596 5.822-5.777 5.822z" fill="#FFF" fill-rule="nonzero"/><text x="16" y="50" fill="#fff" font-size="14">全景</text></g></svg>
